X:1
T:Orchill House
T:Orchill House
T:Nathaniel Gow
C:Nathaniel Gow
L:1/8
Q:1/8=128
M:4/4
K:C
V:1 treble 
V:1
|: E/^F/ | G<A, E>B, DG, G,E/^F/ | G<A, E>A, GA, A,A | G<A, E>A, DG, G,E/^F/ | %4
 G/^F/E/F/ GB, A,2 A,E/F/ | G<A, E>B, DG, G,E/^F/ | G<A, E>A, GA, A,A | G<A, E>A, DG, G,E/^F/ | %8
 G/^F/E/F/ GB, A,2 A,e/^g/ | a>A e>=g d=G Ge/^g/ | aA e^g aA Ae/g/ | aA e>=g d=G Ge/^g/ | %12
 a>e g>B A2 Ae/^g/ | aA e=g d=G Ge/^g/ | aA e>d eg ab | g/a/b/a/ b/a/g/e/ g/e/d/B/ Gc/B/ | %16
 A/B/c/e/ g/e/d/B/ A2 A :| %17

